elementary-xfce/actions/16/node-break.svg

<?xml version="1.0" encoding="UTF-8" standalone="no"?>
<svg
   xmlns:dc="http://purl.org/dc/elements/1.1/"
   xmlns:cc="http://creativecommons.org/ns#"
   xmlns:rdf="http://www.w3.org/1999/02/22-rdf-syntax-ns#"
   xmlns:svg="http://www.w3.org/2000/svg"
   xmlns="http://www.w3.org/2000/svg"
   xmlns:xlink="http://www.w3.org/1999/xlink"
   version="1.0"
   width="16"
   height="16"
   id="svg4876">
  <defs
     id="defs4878">
    <linearGradient
       id="linearGradient5958">
      <stop
         id="stop5960"
         style="stop-color:#d3d7cf;stop-opacity:1"
         offset="0" />
      <stop
         id="stop5962"
         style="stop-color:#d3d7cf;stop-opacity:0"
         offset="1" />
    </linearGradient>
    <linearGradient
       id="linearGradient5944">
      <stop
         id="stop5946"
         style="stop-color:#555753;stop-opacity:1"
         offset="0" />
      <stop
         id="stop5948"
         style="stop-color:#555753;stop-opacity:0"
         offset="1" />
    </linearGradient>
    <linearGradient
       id="linearGradient5604">
      <stop
         id="stop5606"
         style="stop-color:#fcaf3e;stop-opacity:1"
         offset="0" />
      <stop
         id="stop5608"
         style="stop-color:#fcaf3e;stop-opacity:0"
         offset="1" />
    </linearGradient>
    <linearGradient
       id="linearGradient7442">
      <stop
         id="stop7444"
         style="stop-color:#ffffff;stop-opacity:1"
         offset="0" />
      <stop
         id="stop7446"
         style="stop-color:#ffffff;stop-opacity:0"
         offset="1" />
    </linearGradient>
    <linearGradient
       id="linearGradient7430">
      <stop
         id="stop7432"
         style="stop-color:#d3d7cf;stop-opacity:1"
         offset="0" />
      <stop
         id="stop7434"
         style="stop-color:#fafbfa;stop-opacity:1"
         offset="1" />
    </linearGradient>
    <linearGradient
       id="linearGradient8343">
      <stop
         id="stop8345"
         style="stop-color:#babdb6;stop-opacity:0"
         offset="0" />
      <stop
         id="stop8351"
         style="stop-color:#babdb6;stop-opacity:1"
         offset="0.2" />
      <stop
         id="stop8353"
         style="stop-color:#babdb6;stop-opacity:1"
         offset="0.84444445" />
      <stop
         id="stop8347"
         style="stop-color:#babdb6;stop-opacity:0"
         offset="1" />
    </linearGradient>
    <linearGradient
       id="linearGradient8331">
      <stop
         id="stop8333"
         style="stop-color:#555753;stop-opacity:0"
         offset="0" />
      <stop
         id="stop8339"
         style="stop-color:#555753;stop-opacity:1"
         offset="0.2" />
      <stop
         id="stop8341"
         style="stop-color:#555753;stop-opacity:1"
         offset="0.80000001" />
      <stop
         id="stop8335"
         style="stop-color:#555753;stop-opacity:0"
         offset="1" />
    </linearGradient>
    <linearGradient
       x1="12.197592"
       y1="401.09631"
       x2="15.698984"
       y2="404.59772"
       id="linearGradient4985"
       xlink:href="#linearGradient7430"
       gradientUnits="userSpaceOnUse"
       gradientTransform="matrix(0.972223,0,0,0.972206,-21.62501,34.18715)" />
    <linearGradient
       x1="12.816311"
       y1="400.38895"
       x2="12.816311"
       y2="406.51099"
       id="linearGradient4987"
       xlink:href="#linearGradient7442"
       gradientUnits="userSpaceOnUse"
       gradientTransform="matrix(0.875,0,0,0.875073,-20.3125,73.28306)" />
    <linearGradient
       x1="12.197592"
       y1="401.09631"
       x2="15.698984"
       y2="404.59772"
       id="linearGradient4989"
       xlink:href="#linearGradient7430"
       gradientUnits="userSpaceOnUse"
       gradientTransform="matrix(0.933332,0,0,0.933329,-21.09995,49.83527)" />
    <linearGradient
       x1="12.816311"
       y1="400.38895"
       x2="12.816311"
       y2="406.51099"
       id="linearGradient4991"
       xlink:href="#linearGradient7442"
       gradientUnits="userSpaceOnUse"
       gradientTransform="matrix(0.699998,0,0,0.699999,-17.94997,143.7502)" />
    <linearGradient
       x1="-16.000061"
       y1="423.45538"
       x2="-11.80596"
       y2="423.45538"
       id="linearGradient4993"
       xlink:href="#linearGradient8331"
       gradientUnits="userSpaceOnUse"
       gradientTransform="matrix(1.294118,0,0,1.000046,1.705879,1.980172)" />
    <linearGradient
       x1="-16.000221"
       y1="423.58575"
       x2="-11.467163"
       y2="423.58575"
       id="linearGradient4995"
       xlink:href="#linearGradient8343"
       gradientUnits="userSpaceOnUse"
       gradientTransform="matrix(1.294118,0,0,1,1.705879,1.99986)" />
    <linearGradient
       x1="-16.000221"
       y1="423.58575"
       x2="-11.467163"
       y2="423.58575"
       id="linearGradient4998"
       xlink:href="#linearGradient8343"
       gradientUnits="userSpaceOnUse"
       gradientTransform="matrix(1.294118,0,0,1,19.70588,-400.0002)" />
    <linearGradient
       x1="-16.000061"
       y1="423.45538"
       x2="-11.80596"
       y2="423.45538"
       id="linearGradient5001"
       xlink:href="#linearGradient8331"
       gradientUnits="userSpaceOnUse"
       gradientTransform="matrix(1.294118,0,0,1.000046,19.70588,-400.0199)" />
    <linearGradient
       x1="1.5909903"
       y1="13.503029"
       x2="-0.48625344"
       y2="13.503029"
       id="linearGradient5934"
       xlink:href="#linearGradient5958"
       gradientUnits="userSpaceOnUse"
       gradientTransform="translate(0,4)" />
    <linearGradient
       x1="0.75130093"
       y1="15.558058"
       x2="-0.61871845"
       y2="15.558058"
       id="linearGradient5950"
       xlink:href="#linearGradient5944"
       gradientUnits="userSpaceOnUse"
       gradientTransform="translate(0,4)" />
    <linearGradient
       x1="12.197592"
       y1="401.09631"
       x2="15.698984"
       y2="404.59772"
       id="linearGradient1938"
       xlink:href="#linearGradient7430"
       gradientUnits="userSpaceOnUse"
       gradientTransform="matrix(0.933332,0,0,0.933329,-21.09995,49.83527)" />
    <linearGradient
       x1="12.816311"
       y1="400.38895"
       x2="12.816311"
       y2="406.51099"
       id="linearGradient1940"
       xlink:href="#linearGradient7442"
       gradientUnits="userSpaceOnUse"
       gradientTransform="matrix(0.699998,0,0,0.699999,-17.94997,143.7502)" />
    <linearGradient
       x1="12.197592"
       y1="401.09631"
       x2="15.698984"
       y2="404.59772"
       id="linearGradient2862"
       xlink:href="#linearGradient7430"
       gradientUnits="userSpaceOnUse"
       gradientTransform="matrix(0.777775,0,0,0.777775,-19.58328,111.8623)" />
    <linearGradient
       x1="12.816311"
       y1="400.38895"
       x2="12.816311"
       y2="406.51099"
       id="linearGradient2864"
       xlink:href="#linearGradient7442"
       gradientUnits="userSpaceOnUse"
       gradientTransform="matrix(0.583327,0,0,0.583397,-16.95824,190.0994)" />
  </defs>
  <metadata
     id="metadata4881">
    <rdf:RDF>
      <cc:Work
         rdf:about="">
        <dc:format>image/svg+xml</dc:format>
        <dc:type
           rdf:resource="http://purl.org/dc/dcmitype/StillImage" />
      </cc:Work>
    </rdf:RDF>
  </metadata>
  <g
     id="layer1">
    <g
       id="g2866"
       style="opacity:0.5">
      <rect
         width="19"
         height="1.9999993"
         x="-1.5"
         y="2.500001"
         id="rect2834"
         style="fill:#d3d7cf;fill-opacity:1;stroke:#555753;stroke-width:0.99999988;stroke-linecap:round;stroke-linejoin:round;stroke-miterlimit:4;stroke-opacity:1;stroke-dasharray:none;stroke-dashoffset:0" />
      <g
         transform="matrix(0.857143,0,0,0.857143,15.2857,-360.7143)"
         id="g17524">
        <path
           d="m -11.416653,422.58351 4.6666437,0 0,4.66665 -4.6666437,0 0,-4.66665 z"
           id="path17526"
           style="fill:url(#linearGradient2862);fill-opacity:1;stroke:#888a85;stroke-width:1.16666722;stroke-linecap:round;stroke-linejoin:round;stroke-miterlimit:4;stroke-opacity:1" />
        <path
           d="m -10.249984,423.75 2.3333077,0 0,2.3335 -2.3333077,0 0,-2.3335 z"
           id="path17528"
           style="fill:none;stroke:url(#linearGradient2864);stroke-width:1.16666698;stroke-linecap:round;stroke-linejoin:miter;stroke-miterlimit:4;stroke-opacity:1" />
      </g>
    </g>
    <rect
       width="5"
       height="1.9999993"
       x="-1.5"
       y="11.500001"
       id="rect5932"
       style="fill:#d3d7cf;fill-opacity:1;stroke:#555753;stroke-width:0.99999982;stroke-linecap:round;stroke-linejoin:round;stroke-miterlimit:4;stroke-opacity:1;stroke-dasharray:none;stroke-dashoffset:0" />
    <g
       transform="matrix(0.714287,0,0,0.714285,10.57143,-291.4282)"
       id="g17538">
      <path
         d="m -11.299976,422.69982 5.5999843,0 0,5.59997 -5.5999843,0 0,-5.59997 z"
         id="path17540"
         style="fill:url(#linearGradient4989);fill-opacity:1;stroke:#888a85;stroke-width:1.39999926;stroke-linecap:round;stroke-linejoin:round;stroke-miterlimit:4;stroke-opacity:1" />
      <path
         d="m -9.8999854,424.09971 2.7999967,0 0,2.79989 -2.7999967,0 0,-2.79989 z"
         id="path17542"
         style="fill:none;stroke:url(#linearGradient4991);stroke-width:1.39999926;stroke-linecap:round;stroke-linejoin:miter;stroke-miterlimit:4;stroke-opacity:1" />
    </g>
    <rect
       width="5"
       height="1.9999993"
       x="-17.5"
       y="11.500001"
       transform="scale(-1,1)"
       id="rect5964"
       style="fill:#d3d7cf;fill-opacity:1;stroke:#555753;stroke-width:0.99999982;stroke-linecap:round;stroke-linejoin:round;stroke-miterlimit:4;stroke-opacity:1;stroke-dasharray:none;stroke-dashoffset:0" />
    <g
       transform="matrix(0.714287,0,0,0.714285,17.57143,-291.4282)"
       id="g1932">
      <path
         d="m -11.299976,422.69982 5.5999843,0 0,5.59997 -5.5999843,0 0,-5.59997 z"
         id="path1934"
         style="fill:url(#linearGradient1938);fill-opacity:1;stroke:#888a85;stroke-width:1.39999926;stroke-linecap:round;stroke-linejoin:round;stroke-miterlimit:4;stroke-opacity:1" />
      <path
         d="m -9.8999854,424.09971 2.7999967,0 0,2.79989 -2.7999967,0 0,-2.79989 z"
         id="path1936"
         style="fill:none;stroke:url(#linearGradient1940);stroke-width:1.39999926;stroke-linecap:round;stroke-linejoin:miter;stroke-miterlimit:4;stroke-opacity:1" />
    </g>
  </g>
</svg>

<?xml version="1.0" encoding="UTF-8" standalone="no"?>
<svg
   xmlns:dc="http://purl.org/dc/elements/1.1/"
   xmlns:cc="http://creativecommons.org/ns#"
   xmlns:rdf="http://www.w3.org/1999/02/22-rdf-syntax-ns#"
   xmlns:svg="http://www.w3.org/2000/svg"
   xmlns="http://www.w3.org/2000/svg"
   xmlns:xlink="http://www.w3.org/1999/xlink"
   width="16"
   height="16"
   id="svg4876"
   version="1.0">
  <defs
     id="defs4878">
    <linearGradient
       id="linearGradient7442">
      <stop
         style="stop-color:white;stop-opacity:1;"
         offset="0"
         id="stop7444" />
      <stop
         style="stop-color:white;stop-opacity:0;"
         offset="1"
         id="stop7446" />
    </linearGradient>
    <linearGradient
       id="linearGradient7430">
      <stop
         style="stop-color:#d3d7cf;stop-opacity:1;"
         offset="0"
         id="stop7432" />
      <stop
         style="stop-color:#fafbfa;stop-opacity:1"
         offset="1"
         id="stop7434" />
    </linearGradient>
    <linearGradient
       xlink:href="#linearGradient7430"
       id="linearGradient4989"
       gradientUnits="userSpaceOnUse"
       gradientTransform="matrix(0.933332,0,0,0.933329,-21.09995,49.83527)"
       x1="12.197592"
       y1="401.09631"
       x2="15.698984"
       y2="404.59772" />
    <linearGradient
       xlink:href="#linearGradient7442"
       id="linearGradient4991"
       gradientUnits="userSpaceOnUse"
       gradientTransform="matrix(0.699998,0,0,0.699999,-17.94997,143.7502)"
       x1="12.816311"
       y1="400.38895"
       x2="12.816311"
       y2="406.51099" />
    <linearGradient
       xlink:href="#linearGradient7430"
       id="linearGradient1938"
       gradientUnits="userSpaceOnUse"
       gradientTransform="matrix(0.933332,0,0,0.933329,-21.09995,49.83527)"
       x1="12.197592"
       y1="401.09631"
       x2="15.698984"
       y2="404.59772" />
    <linearGradient
       xlink:href="#linearGradient7442"
       id="linearGradient1940"
       gradientUnits="userSpaceOnUse"
       gradientTransform="matrix(0.699998,0,0,0.699999,-17.94997,143.7502)"
       x1="12.816311"
       y1="400.38895"
       x2="12.816311"
       y2="406.51099" />
    <linearGradient
       xlink:href="#linearGradient7430"
       id="linearGradient2862"
       gradientUnits="userSpaceOnUse"
       gradientTransform="matrix(0.777775,0,0,0.777775,-19.58328,111.8623)"
       x1="12.197592"
       y1="401.09631"
       x2="15.698984"
       y2="404.59772" />
    <linearGradient
       xlink:href="#linearGradient7442"
       id="linearGradient2864"
       gradientUnits="userSpaceOnUse"
       gradientTransform="matrix(0.583327,0,0,0.583397,-16.95824,190.0994)"
       x1="12.816311"
       y1="400.38895"
       x2="12.816311"
       y2="406.51099" />
  </defs>
  <metadata
     id="metadata4881">
    <rdf:RDF>
      <cc:Work
         rdf:about="">
        <dc:format>image/svg+xml</dc:format>
        <dc:type
           rdf:resource="http://purl.org/dc/dcmitype/StillImage" />
      </cc:Work>
    </rdf:RDF>
  </metadata>
  <g
     id="layer1">
    <g
       id="g2866"
       style="opacity:0.5">
      <rect
         y="2.500001"
         x="-1.5"
         height="1.9999993"
         width="19"
         id="rect2834"
         style="opacity:1;fill:#d3d7cf;fill-opacity:1;stroke:#555753;stroke-width:0.99999988;stroke-linecap:round;stroke-linejoin:round;stroke-miterlimit:4;stroke-dasharray:none;stroke-dashoffset:0;stroke-opacity:1" />
      <g
         id="g17524"
         transform="matrix(0.857143,0,0,0.857143,15.2857,-360.7143)"
         style="opacity:1">
        <path
           style="fill:url(#linearGradient2862);fill-opacity:1;stroke:#888a85;stroke-width:1.16666722;stroke-linecap:round;stroke-linejoin:round;stroke-miterlimit:4;stroke-opacity:1"
           d="M -11.416653,422.58351 L -6.7500093,422.58351 L -6.7500093,427.25016 L -11.416653,427.25016 L -11.416653,422.58351 z "
           id="path17526" />
        <path
           style="fill:none;fill-opacity:1;stroke:url(#linearGradient2864);stroke-width:1.16666698;stroke-linecap:round;stroke-linejoin:miter;stroke-miterlimit:4;stroke-opacity:1"
           d="M -10.249984,423.75 L -7.9166763,423.75 L -7.9166763,426.0835 L -10.249984,426.0835 L -10.249984,423.75 z "
           id="path17528" />
      </g>
    </g>
    <rect
       style="opacity:1;fill:#d3d7cf;fill-opacity:1;stroke:#555753;stroke-width:0.99999982;stroke-linecap:round;stroke-linejoin:round;stroke-miterlimit:4;stroke-dasharray:none;stroke-dashoffset:0;stroke-opacity:1"
       id="rect5932"
       width="5"
       height="1.9999993"
       x="-1.5"
       y="11.500001" />
    <g
       transform="matrix(0.714287,0,0,0.714285,10.57143,-291.4282)"
       id="g17538">
      <path
         id="path17540"
         d="M -11.299976,422.69982 L -5.6999917,422.69982 L -5.6999917,428.29979 L -11.299976,428.29979 L -11.299976,422.69982 z "
         style="fill:url(#linearGradient4989);fill-opacity:1;stroke:#888a85;stroke-width:1.39999926;stroke-linecap:round;stroke-linejoin:round;stroke-miterlimit:4;stroke-opacity:1" />
      <path
         id="path17542"
         d="M -9.8999854,424.09971 L -7.0999887,424.09971 L -7.0999887,426.8996 L -9.8999854,426.8996 L -9.8999854,424.09971 z "
         style="fill:none;fill-opacity:1;stroke:url(#linearGradient4991);stroke-width:1.39999926;stroke-linecap:round;stroke-linejoin:miter;stroke-miterlimit:4;stroke-opacity:1" />
    </g>
    <rect
       style="opacity:1;fill:#d3d7cf;fill-opacity:1;stroke:#555753;stroke-width:0.99999982;stroke-linecap:round;stroke-linejoin:round;stroke-miterlimit:4;stroke-dasharray:none;stroke-dashoffset:0;stroke-opacity:1"
       id="rect5964"
       width="5"
       height="1.9999993"
       x="-17.5"
       y="11.500001"
       transform="scale(-1,1)" />
    <g
       transform="matrix(0.714287,0,0,0.714285,17.57143,-291.4282)"
       id="g1932">
      <path
         id="path1934"
         d="M -11.299976,422.69982 L -5.6999917,422.69982 L -5.6999917,428.29979 L -11.299976,428.29979 L -11.299976,422.69982 z "
         style="fill:url(#linearGradient1938);fill-opacity:1;stroke:#888a85;stroke-width:1.39999926;stroke-linecap:round;stroke-linejoin:round;stroke-miterlimit:4;stroke-opacity:1" />
      <path
         id="path1936"
         d="M -9.8999854,424.09971 L -7.0999887,424.09971 L -7.0999887,426.8996 L -9.8999854,426.8996 L -9.8999854,424.09971 z "
         style="fill:none;fill-opacity:1;stroke:url(#linearGradient1940);stroke-width:1.39999926;stroke-linecap:round;stroke-linejoin:miter;stroke-miterlimit:4;stroke-opacity:1" />
    </g>
  </g>
</svg>
